@themes/theme-zeno/src/img/cloud.svg

<svg width="152" height="91" viewBox="0 0 152 91" fill="none" xmlns="http://www.w3.org/2000/svg">
<path d="M126 63C126 70.1797 131.82 76 139 76C146.18 76 152 70.1797 152 63C152 55.8203 146.18 50 139 50C131.82 50 126 55.8203 126 63Z" fill="white"/>
<path d="M76 77C76 84.1797 81.8203 90 89 90C96.1797 90 102 84.1797 102 77C102 69.8203 96.1797 64 89 64C81.8203 64 76 69.8203 76 77Z" fill="white"/>
<path d="M15 53.5C15 70.3447 28.6553 84 45.5 84C62.3447 84 76 70.3447 76 53.5C76 36.6553 62.3447 23 45.5 23C28.6553 23 15 36.6553 15 53.5Z" fill="white"/>
<path d="M0 56C0 66.4934 8.50659 75 19 75C29.4934 75 38 66.4934 38 56C38 45.5066 29.4934 37 19 37C8.50659 37 0 45.5066 0 56Z" fill="white"/>
<path d="M46 37C46 57.4345 62.5655 74 83 74C103.435 74 120 57.4345 120 37C120 16.5655 103.435 0 83 0C62.5655 0 46 16.5655 46 37Z" fill="white"/>
<path d="M85 65.5C85 79.5833 96.4167 91 110.5 91C124.583 91 136 79.5833 136 65.5C136 51.4167 124.583 40 110.5 40C96.4167 40 85 51.4167 85 65.5Z" fill="white"/>
</svg>

<svg width="152" height="91" fill="none" xmlns="http://www.w3.org/2000/svg"><path d="M126 63c0 7.18 5.82 13 13 13s13-5.82 13-13-5.82-13-13-13-13 5.82-13 13zM76 77c0 7.18 5.82 13 13 13s13-5.82 13-13-5.82-13-13-13-13 5.82-13 13zM15 53.5C15 70.345 28.655 84 45.5 84S76 70.345 76 53.5 62.345 23 45.5 23 15 36.655 15 53.5z" fill="#fff"/><path d="M0 56c0 10.493 8.507 19 19 19s19-8.507 19-19-8.507-19-19-19S0 45.507 0 56zM46 37c0 20.434 16.566 37 37 37 20.435 0 37-16.566 37-37S103.435 0 83 0C62.566 0 46 16.566 46 37z" fill="#fff"/><path d="M85 65.5C85 79.583 96.417 91 110.5 91S136 79.583 136 65.5 124.583 40 110.5 40 85 51.417 85 65.5z" fill="#fff"/></svg>
